systematic/svg/database.svg

<?xml version="1.0" encoding="UTF-8" standalone="no"?>
<svg
   xmlns:dc="http://purl.org/dc/elements/1.1/"
   xmlns:cc="http://creativecommons.org/ns#"
   xmlns:rdf="http://www.w3.org/1999/02/22-rdf-syntax-ns#"
   xmlns:svg="http://www.w3.org/2000/svg"
   xmlns="http://www.w3.org/2000/svg"
   viewBox="0 0 320 320"
   height="320"
   width="320"
   xml:space="preserve"
   version="1.1"
   id="svg2"><metadata
     id="metadata8"><rdf:RDF><cc:Work
         rdf:about=""><dc:format>image/svg+xml</dc:format><dc:type
           rdf:resource="http://purl.org/dc/dcmitype/StillImage" /></cc:Work></rdf:RDF></metadata><defs
     id="defs6"><clipPath
       id="clipPath16"
       clipPathUnits="userSpaceOnUse"><path
         id="path18"
         d="M 0,256 256,256 256,0 0,0 0,256 Z" /></clipPath><clipPath
       id="clipPath28"
       clipPathUnits="userSpaceOnUse"><path
         id="path30"
         d="m 58.56,197.44 138.88,0 0,-138.88 -138.88,0 0,138.88 z" /></clipPath></defs><g
     transform="matrix(1.25,0,0,-1.25,0,320)"
     id="g10"><g
       id="g12"><g
         clip-path="url(#clipPath16)"
         id="g14"><g
           transform="translate(169.7892,76.3078)"
           id="g20"><path
             id="path22"
             style="fill:#b3b3b3;fill-opacity:1;fill-rule:nonzero;stroke:none"
             d="m 0,0 -83.578,0 c -6.6,0 -12,5.4 -12,12 l 0,73.003 c 0,6.6 5.4,12 12,12 l 83.578,0 c 6.6,0 12,-5.4 12,-12 L 12,12 C 12,5.4 6.6,0 0,0" /></g><g
           id="g24"><g
             id="g26" /><g
             id="g32"><g
               style="opacity:0.5"
               id="g34"
               clip-path="url(#clipPath28)"><g
                 id="g36"
                 transform="translate(175.0664,192.6788)"><path
                   id="path38"
                   style="fill:#ffffff;fill-opacity:1;fill-rule:nonzero;stroke:none"
                   d="m 0,0 c -11.865,3.115 -28.14,4.761 -47.066,4.761 -18.927,0 -35.202,-1.646 -47.067,-4.761 -14.846,-3.897 -22.373,-10.155 -22.373,-18.599 l 0,-53.76 0,-15.714 0,-15.006 0,-7.68 c 0,-8.444 7.527,-14.701 22.373,-18.599 11.865,-3.114 28.14,-4.761 47.067,-4.761 18.926,0 35.201,1.647 47.066,4.761 14.846,3.898 22.374,10.155 22.374,18.599 l 0,7.68 0,7.68 0,7.326 0,15.714 0,7.68 0,7.68 0,7.326 0,0.354 0,15.36 0,15.36 C 22.374,-10.155 14.846,-3.897 0,0" /></g></g></g></g><g
           transform="translate(128,89.6)"
           id="g40"><path
             id="path42"
             style="fill:#808080;fill-opacity:1;fill-rule:nonzero;stroke:none"
             d="m 0,0 c -38.173,0 -61.44,6.877 -61.44,15.36 l 0,-7.68 0,-7.68 0,-7.68 c 0,-8.483 23.267,-15.36 61.44,-15.36 38.173,0 61.44,6.877 61.44,15.36 l 0,7.68 0,7.68 0,7.68 C 61.44,6.877 38.173,0 0,0 m 0,38.4 c -38.173,0 -61.44,6.877 -61.44,15.36 l 0,-7.68 0,-7.68 0,-7.68 c 0,-8.483 23.267,-15.36 61.44,-15.36 38.173,0 61.44,6.877 61.44,15.36 l 0,7.68 0,7.68 0,7.68 C 61.44,45.277 38.173,38.4 0,38.4 m 0,61.44 c -38.173,0 -61.44,-6.877 -61.44,-15.36 l 0,-15.36 c 0,-8.483 23.267,-15.36 61.44,-15.36 38.173,0 61.44,6.877 61.44,15.36 l 0,15.36 C 61.44,92.963 38.173,99.84 0,99.84" /></g></g></g></g></svg>

<?xml version="1.0" encoding="UTF-8" standalone="no"?>
<svg
   xmlns:dc="http://purl.org/dc/elements/1.1/"
   xmlns:cc="http://creativecommons.org/ns#"
   xmlns:rdf="http://www.w3.org/1999/02/22-rdf-syntax-ns#"
   xmlns:svg="http://www.w3.org/2000/svg"
   xmlns="http://www.w3.org/2000/svg"
   viewBox="0 0 185.17279 185.17306"
   height="185.17307"
   width="185.17279"
   xml:space="preserve"
   id="svg2"
   version="1.1"><metadata
     id="metadata8"><rdf:RDF><cc:Work
         rdf:about=""><dc:format>image/svg+xml</dc:format><dc:type
           rdf:resource="http://purl.org/dc/dcmitype/StillImage" /></cc:Work></rdf:RDF></metadata><defs
     id="defs6"><clipPath
       id="clipPath18"
       clipPathUnits="userSpaceOnUse"><path
         id="path16"
         d="M 0,256 H 256 V 0 H 0 Z" /></clipPath><clipPath
       id="clipPath30"
       clipPathUnits="userSpaceOnUse"><path
         id="path28"
         d="M 58.56,197.44 H 197.44 V 58.56 H 58.56 Z" /></clipPath></defs><g
     transform="matrix(1.3333333,0,0,-1.3333333,-78.080531,263.25306)"
     id="g10"><g
       id="g12"><g
         clip-path="url(#clipPath18)"
         id="g14"><g
           transform="translate(169.7892,76.3078)"
           id="g20"><path
             id="path22"
             style="fill:#b3b3b3;fill-opacity:1;fill-rule:nonzero;stroke:none"
             d="m 0,0 h -83.578 c -6.6,0 -12,5.4 -12,12 v 73.003 c 0,6.6 5.4,12 12,12 H 0 c 6.6,0 12,-5.4 12,-12 V 12 C 12,5.4 6.6,0 0,0" /></g><g
           id="g24"><g
             id="g26" /><g
             id="g38"><g
               style="opacity:0.5"
               id="g36"
               clip-path="url(#clipPath30)"><g
                 id="g34"
                 transform="translate(175.0664,192.6788)"><path
                   id="path32"
                   style="fill:#ffffff;fill-opacity:1;fill-rule:nonzero;stroke:none"
                   d="m 0,0 c -11.865,3.115 -28.14,4.761 -47.066,4.761 -18.927,0 -35.202,-1.646 -47.067,-4.761 -14.846,-3.897 -22.373,-10.155 -22.373,-18.599 v -53.76 -15.714 -15.006 -7.68 c 0,-8.444 7.527,-14.701 22.373,-18.599 11.865,-3.114 28.14,-4.761 47.067,-4.761 18.926,0 35.201,1.647 47.066,4.761 14.846,3.898 22.374,10.155 22.374,18.599 v 7.68 7.68 7.326 15.714 7.68 7.68 7.326 0.354 15.36 15.36 C 22.374,-10.155 14.846,-3.897 0,0" /></g></g></g></g><g
           transform="translate(128,89.6)"
           id="g40"><path
             id="path42"
             style="fill:#808080;fill-opacity:1;fill-rule:nonzero;stroke:none"
             d="M 0,0 C -38.173,0 -61.44,6.877 -61.44,15.36 V 7.68 0 -7.68 c 0,-8.483 23.267,-15.36 61.44,-15.36 38.173,0 61.44,6.877 61.44,15.36 V 0 7.68 15.36 C 61.44,6.877 38.173,0 0,0 m 0,38.4 c -38.173,0 -61.44,6.877 -61.44,15.36 V 46.08 38.4 30.72 c 0,-8.483 23.267,-15.36 61.44,-15.36 38.173,0 61.44,6.877 61.44,15.36 v 7.68 7.68 7.68 C 61.44,45.277 38.173,38.4 0,38.4 m 0,61.44 c -38.173,0 -61.44,-6.877 -61.44,-15.36 V 69.12 c 0,-8.483 23.267,-15.36 61.44,-15.36 38.173,0 61.44,6.877 61.44,15.36 V 84.48 C 61.44,92.963 38.173,99.84 0,99.84" /></g></g></g></g></svg>
